X:1
T: Kinloss
C:
R:Strathspey
Q: 128
K:D
M:4/4
L:1/16
|:B2|AGFE D3E FA3 A3d|B3A B3d ce3 e4|AGFE D3E FA3 A3d|B3d c3a fd3 d2B2|
AGFE D3E FA3 A3d|B3A B3d ce3 e4|AGFE D3E FA3 A3d|B3d c3a fd3 d2g2|
f3a fd3 c3e cA3|d3f dB3 A3c AF3|GABc d3B Ad3 d4|c3e a3e fd3 d2g2|
f3a fd3 c3e cA3|d3f dB3 A3c AF3|GABc d3B Ad3 d4|c3e a3e fd3 d2:|
